svgs/light/person-to-portal.svg

<svg xmlns="http://www.w3.org/2000/svg" viewBox="0 0 512 512"><!--! Font Awesome Pro 6.0.0-alpha3 by @fontawesome - https://fontawesome.com License - https://fontawesome.com/license (Commercial License) --><path d="M431.1 0c-53.94 0-71.3 121.8-76.25 174.2c-.8438 8.797 5.609 16.61 14.41 17.44c9.016 1.047 16.61-5.625 17.44-14.41C397.1 67.75 424.1 32 432 32C446.4 32 480 108.2 480 256s-33.64 224-48 224c-7.219 0-31.81-32.59-43.06-132.4c-1-8.781-8.875-15.17-17.7-14.11c-8.781 1-15.09 8.922-14.11 17.7c6.781 60.05 25.51 160.8 74.87 160.8C486.1 511.1 512 379.3 512 255.1S486.1 0 431.1 0zM221.2 153.3c2.014 .8574 4.201 1.25 6.158 2.229c21.09 10.53 38.5 27.95 49.03 49.05l20.44 40.83C305 261.8 321.5 272 339.8 272H400c8.844 0 15.1-7.163 15.1-16.01S408.8 240 400 240h-60.11c-6.125 0-11.62-3.43-14.34-8.898l-20.52-40.79c-13.62-27.23-36.09-49.73-63.34-63.36C222.1 117.2 200.2 112 178.3 112H138.7c-10.31 0-20.56 3.422-28.78 9.609L54.41 163.2c-7.062 5.297-8.5 15.33-3.219 22.39c5.312 7.094 15.34 8.5 22.41 3.203l55.5-41.59C131.8 145.1 135.2 144 138.7 144h39.69c3.738 0 7.396 .916 11.12 1.301L154.4 215.5C136.8 250.6 147.8 294.2 180.1 316.8l105.4 73.78l-28.84 101c-2.438 8.484 2.469 17.34 10.97 19.78C269.1 511.8 270.6 512 272 512c6.969 0 13.38-4.578 15.38-11.61l32-112c1.875-6.562-.5938-13.58-6.188-17.5L198.4 290.6c-19.38-13.55-26-39.69-15.44-60.8L221.2 153.3zM135.2 337.7c-7.906-3.906-17.47-.7344-21.47 7.156L102.1 368H16c-8.844 0-16 7.163-16 16.01S7.156 400 16 400h96c6.062 0 11.59-3.422 14.31-8.844l16-32C146.3 351.3 143.1 341.6 135.2 337.7zM280 112c30.88 0 56-25.12 56-56S310.9 0 280 0S224 25.12 224 56S249.1 112 280 112zM280 32c13.22 0 24 10.77 24 24S293.2 80 280 80S256 69.23 256 56S266.8 32 280 32z"/></svg>

<svg xmlns="http://www.w3.org/2000/svg" viewBox="0 0 512 512"><!-- Font Awesome Pro 6.0.0-alpha2 by @fontawesome - https://fontawesome.com License - https://fontawesome.com/license (Commercial License) --><path d="M432 0C378.062 0 360.703 121.812 355.75 174.188C354.906 182.984 361.359 190.797 370.156 191.625C379.172 192.672 386.766 186 387.594 177.219C397.969 67.75 424.141 32 432 32C446.359 32 480 108.203 480 256S446.359 480 432 480C424.781 480 400.188 447.406 388.938 347.625C387.938 338.844 380.062 332.453 371.234 333.516C362.453 334.516 356.141 342.437 357.125 351.219C363.906 411.266 382.641 512 432 512C486.969 512 512 379.297 512 256S486.969 0 432 0ZM221.217 153.35C223.23 154.207 225.418 154.6 227.375 155.578C248.469 166.109 265.875 183.531 276.406 204.625L296.844 245.453C305 261.828 321.469 272 339.781 272H400C408.844 272 416 264.844 416 256S408.844 240 400 240H339.781C333.656 240 328.188 236.625 325.469 231.156L305.031 190.312C291.406 163.078 268.938 140.578 241.688 126.953C222.125 117.172 200.219 112 178.344 112H138.656C128.344 112 118.094 115.422 109.875 121.609L54.406 163.203C47.344 168.5 45.906 178.531 51.188 185.594C56.5 192.688 66.531 194.094 73.594 188.797L129.094 147.203C131.812 145.141 135.219 144 138.656 144H178.344C182.082 144 185.74 144.916 189.459 145.301L154.375 215.453C136.781 250.641 147.844 294.203 180.062 316.781L285.469 390.563L256.625 491.609C254.187 500.094 259.094 508.953 267.594 511.391C269.062 511.797 270.562 512 272 512C278.969 512 285.375 507.422 287.375 500.391L319.375 388.391C321.25 381.828 318.781 374.812 313.188 370.891L198.438 290.562C179.062 277.016 172.438 250.875 183 229.766L221.217 153.35ZM135.156 337.688C127.25 333.781 117.688 336.953 113.688 344.844L102.125 368H16C7.156 368 0 375.156 0 384S7.156 400 16 400H112C118.062 400 123.594 396.578 126.312 391.156L142.312 359.156C146.25 351.25 143.062 341.641 135.156 337.688ZM280 112C310.875 112 336 86.875 336 56S310.875 0 280 0S224 25.125 224 56S249.125 112 280 112ZM280 32C293.219 32 304 42.766 304 56S293.219 80 280 80S256 69.234 256 56S266.781 32 280 32Z"/></svg>
